X: 41341
T: Turn, The
R: hornpipe
M: 4/4
K: Gmajor
g|(3efg dB GB d2|GBdB GBdg|(3efg dB GBde|gedB A2 G:|
aeab aeab|gega ge g2|aeab aeab|gede BA A:|

